X:1
T:Title
%%score 1 { ( 2 5 7 ) | ( 3 4 6 ) }
L:1/8
Q:1/4=108
M:4/4
K:G
V:1 treble nm="Akkordion"
V:2 treble nm="Grand Piano"
V:5 treble 
V:7 treble 
V:3 bass 
V:4 bass 
V:6 bass 
V:1
 G4 A2 B2 | B2 E2 c2 B2 | A2 E2 F2 G2 | B4 A4 | d4 c2 B2 | B2 A2 c2 E2 | B2 A2 G2 A2 | G8 | %8
w: T.~G.~Reed * *||||||||
 G4 ^G2 =G2 | =F2 G2 ^D2 G2 | G2 B2 A2 d2 | d8 | e4 A2 B2 | c3 E E2 c2 | B2 A2 G2 A2 | G8 | z8 |] %17
w: |||||||||
V:2
 [B,DG]4 A2 B2 | B2 E2 [CEc]2 [DEB]2 | [EA]2 z2 F2 G2 | B4 A4 | d2- [Dd]2 c2 B2 | [=FB]2 A2 c2 z2 | %6
 B2 A2 G2 A2 | [B,G]8 | [^DG]2- [=B,DG]2 ^G2 =G2 | =F2 G2 ^D2 G2 | G2 B2 A2 d2 | [Gd]4 [Gd]4 | %12
 [Ee]4 [A,EA]2 [DEB]2 | [CEc]4 z4 | D2- [D-A]2 [D-G]2 [D-A]2 | [B,D-G]8 | D2 z2 z4 |] %17
V:3
 G,,2 G,2 [G,CD]2 [B,D]2 | ^G,2 z2 z4 | A,6 z2 | [D,D-]6 D2 | z4 [A,F]2 z2 | ^G,2 [A,E-]4 E2 | %6
 D,8 | z2 D,2 G,,4 | z4 [C^D]2 [_B,D]2 | [_B,,^G,]2 [=B,,=G,]2 [C,G,C]2 [^C,_B,^D]2 | %10
 B,2 G,2 C,2- [C,A,F]2 | [B,,G,]4 [G,,B,=F]4 | G,2 z2 z4 | z4 z2 A,2- | A,2 z2 z4 | [G,,G,]8 | %16
 z8 |] %17
V:4
 x8 | [E,D]2- [E,B,D]2 [A,,A,]2 [B,,^G,]2 | C,4 z2 E,2 | z4 F,4 | B,,2 B,2 D2- [G,D-G]2 | %5
 [C,-D]2 [C,C-]2 [A,,C-]4 | C2- [F,C-]2 [E,C-]2 [F,C]2 | G,,4 z4 | [^D,,^D,]8 | x8 | %10
 [D,D]4 [F,D]2 z2 | x8 | C,2- [C,^G,]2 C,2 [^G,,E,]2 | A,,3- [A,,C] z4 | z2 F,2 F,2 F,2 | x8 | %16
 x8 |] %17
V:5
 x8 | x8 | z2 E6 | x8 | G2 z2 z4 | z4 z2 G,2- | G,2 z2 z4 | G,2 z2 z4 | _B,2 z2 z4 | D4 z4 | x8 | %11
 x8 | x8 | z2 z E [CE]2 [CEc]2 | [C-B]2 C6 | x8 | x8 |] %17
V:6
 x8 | x8 | z4 ^C,4 | G,4 z2 C,2 | x8 | x8 | x8 | x8 | x8 | x8 | x8 | x8 | x8 | E,2 z2 A,,4 | D,8 | %15
 x8 | x8 |] %17
V:7
 x8 | x8 | x8 | x8 | x8 | x8 | x8 | x8 | x8 | x8 | x8 | x8 | x8 | z2 A,4 z2 | x8 | x8 | x8 |] %17

